img/image/features.svg

<svg width="102" height="111" viewBox="0 0 102 111" fill="none" xmlns="http://www.w3.org/2000/svg">
<g opacity="0.8">
<path d="M19.4831 66.9844H7.82269M7.82269 66.9844V9.33053C7.82269 4.72891 11.554 1 16.1556 1H53.0288C57.6304 1 61.3617 4.72891 61.3617 9.33053V66.9844H49.7016M7.82269 66.9844V100.148H61.3619V66.9844M65.4026 100.149H3.78202C2.24552 100.149 1 101.395 1 102.931V106.952C1 108.489 2.24552 109.734 3.78202 109.734H65.4026C66.9391 109.734 68.1844 108.489 68.1844 106.952V102.931C68.1844 101.395 66.9389 100.149 65.4026 100.149Z" stroke="#E0E0E0" stroke-width="2" stroke-miterlimit="10" stroke-linecap="round" stroke-linejoin="round"/>
<path d="M17.9277 28.6233V40.8575C17.9277 42.8042 19.5058 44.3823 21.4525 44.3823H47.7325C49.6792 44.3823 51.2573 42.8042 51.2573 40.8575V14.5775C51.2573 12.6308 49.6792 11.0527 47.7325 11.0527H21.4525C19.5058 11.0527 17.9277 12.6308 17.9277 14.5775V20.8616M34.8139 74.3859L37.6729 66.9848H31.5121L34.3711 59.5836" stroke="#E0E0E0" stroke-width="2" stroke-miterlimit="10" stroke-linecap="round" stroke-linejoin="round"/>
<path d="M34.5922 82.0937C42.9368 82.0937 49.7014 75.3291 49.7014 66.9845C49.7014 58.6399 42.9368 51.8752 34.5922 51.8752C26.2475 51.8752 19.4829 58.6399 19.4829 66.9845C19.4829 75.3291 26.2475 82.0937 34.5922 82.0937Z" stroke="#E0E0E0" stroke-width="2" stroke-miterlimit="10" stroke-linecap="round" stroke-linejoin="round"/>
<path d="M67.4361 53.7761H61.3618V66.9844H67.4361C67.7734 66.9844 68.0969 66.8504 68.3355 66.6118C68.574 66.3733 68.7081 66.0497 68.7081 65.7124V55.0481C68.7081 54.7108 68.574 54.3872 68.3355 54.1487C68.0969 53.9101 67.7734 53.7761 67.4361 53.7761Z" stroke="#E0E0E0" stroke-width="2" stroke-miterlimit="10" stroke-linecap="round" stroke-linejoin="round"/>
<path d="M78.2181 87.6069C80.5352 90.2307 83.9244 91.8856 87.7001 91.8856C94.684 91.8856 100.346 86.224 100.346 79.2401V40.1417M100.346 40.1417H93.5028V79.2401C93.5028 82.4448 90.9048 85.0428 87.7001 85.0428C84.4954 85.0428 81.8973 82.4448 81.8973 79.2401V70.1477C81.8973 62.8634 75.9922 56.9583 68.7079 56.9583V63.8011H69.2518C72.4565 63.8011 75.0545 66.3991 75.0545 69.6038V79.2398C75.0545 79.6358 75.0727 80.0274 75.1083 80.414M100.346 40.1417L100.346 20.0326M100.346 40.1417H93.503C89.9452 40.1417 87.0608 37.2575 87.0608 33.6995V31.6613M87.0608 24.023V23.1686C87.0608 21.4368 88.4647 20.0326 90.1968 20.0326H100.346M100.346 20.0326L100.346 15.435C100.346 14.3829 100.103 13.3451 99.6373 12.4019C99.1713 11.4587 98.4943 10.6355 97.6588 9.99627L95.0314 7.98633M100.346 32.9344H95.0159M24.1558 24.8443H33.1905M24.1558 18.8486H33.1905M37.6727 37.4312H25.9325C25.4613 37.4312 25.0094 37.244 24.6762 36.9108C24.343 36.5776 24.1558 36.1257 24.1558 35.6545V32.7399C24.1558 32.2687 24.343 31.8167 24.6762 31.4835C25.0094 31.1503 25.4613 30.9632 25.9325 30.9632H37.6727C38.1439 30.9632 38.5958 31.1503 38.929 31.4835C39.2622 31.8167 39.4494 32.2687 39.4494 32.7399V35.6545C39.4495 35.8878 39.4035 36.1189 39.3142 36.3344C39.225 36.55 39.0941 36.7459 38.9291 36.9109C38.7641 37.0759 38.5682 37.2067 38.3527 37.296C38.1371 37.3853 37.906 37.4312 37.6727 37.4312Z" stroke="#E0E0E0" stroke-width="2" stroke-miterlimit="10" stroke-linecap="round" stroke-linejoin="round"/>
</g>
</svg>

<svg width="102" height="111" fill="none" xmlns="http://www.w3.org/2000/svg"><g opacity=".8" stroke="#E0E0E0" stroke-width="2" stroke-miterlimit="10" stroke-linecap="round" stroke-linejoin="round"><path d="M19.483 66.984H7.823m0 0V9.331A8.332 8.332 0 0 1 16.156 1h36.873a8.332 8.332 0 0 1 8.333 8.33v57.654h-11.66m-41.88 0v33.164h53.54V66.984m4.04 33.165H3.783A2.782 2.782 0 0 0 1 102.931v4.021a2.782 2.782 0 0 0 2.782 2.782h61.62a2.781 2.781 0 0 0 2.782-2.782v-4.021a2.782 2.782 0 0 0-2.781-2.782Z"/><path d="M17.928 28.623v12.235a3.525 3.525 0 0 0 3.524 3.524h26.28a3.525 3.525 0 0 0 3.525-3.524v-26.28a3.525 3.525 0 0 0-3.524-3.525h-26.28a3.525 3.525 0 0 0-3.525 3.524v6.285m16.886 53.524 2.859-7.401h-6.16l2.858-7.401"/><path d="M34.592 82.094c8.345 0 15.11-6.765 15.11-15.11 0-8.344-6.765-15.109-15.11-15.109-8.345 0-15.11 6.765-15.11 15.11 0 8.344 6.765 15.109 15.11 15.109ZM67.436 53.776h-6.074v13.208h6.074a1.272 1.272 0 0 0 1.272-1.272V55.048a1.272 1.272 0 0 0-1.272-1.272Z"/><path d="M78.218 87.607a12.615 12.615 0 0 0 9.482 4.279c6.984 0 12.646-5.662 12.646-12.646V40.142m0 0h-6.843V79.24a5.803 5.803 0 0 1-11.606 0v-9.092c0-7.285-5.905-13.19-13.19-13.19v6.843h.545a5.803 5.803 0 0 1 5.803 5.803v9.636c0 .396.018.787.053 1.174m25.238-40.272v-20.11m0 20.11h-6.843a6.442 6.442 0 0 1-6.442-6.443v-2.038m0-7.638v-.854a3.136 3.136 0 0 1 3.136-3.136h10.149m0 0v-4.598a6.852 6.852 0 0 0-2.687-5.439l-2.628-2.01m5.315 24.948h-5.33m-70.86-8.09h9.035m-9.035-5.995h9.035m4.482 18.582h-11.74a1.777 1.777 0 0 1-1.777-1.776V32.74a1.777 1.777 0 0 1 1.777-1.777h11.74a1.777 1.777 0 0 1 1.776 1.777v2.914a1.774 1.774 0 0 1-1.776 1.777Z"/></g></svg>
